X: 28341
T: Muiñeira Da Camposa
R: jig
M: 6/8
K: Dmajor
|:ABA|FDF EFE|DFA dcB|cBA GFE|F2D ABA|
FDF EFE|DFA dcB|cBA GFE|D3:|
|:DGE|F2D DGE|F2D DGE|FDE CDE|FED DGE|
F2D DGE|F2D DGE|FDE CEC|D3:|
|:DGE|FDE CGE|FDE CGE|FDE CDE|FED DGE|
FDE CGE|FDE CGE|FDE CEC|D3:|
[K:Dm]E3|F3 G3|A3 d3|c3 B3|d3 A3|B3 A3|G3 F3|E3 F3|
D3 E3|F3 G3|A3 d3|c3 B3|A3 G3|B3 A3|G3 F3|E3 F3
D3 E3|F3 G3|E3 F3|G3 B3|A6-|-A3 A=B/A/G|A6-|-A6-|-A3||


